src/images/icons/icon-cake.svg

<svg width="44" height="52" viewBox="0 0 44 52" fill="none" xmlns="http://www.w3.org/2000/svg">
<path fill-rule="evenodd" clip-rule="evenodd" d="M44 26.0003C44 21.9754 41.2749 18.4692 37.4765 17.3625C37.0804 13.0268 33.3942 9.61783 28.9202 9.61783C28.5305 9.61783 28.1431 9.64535 27.7598 9.69705C27.012 7.98208 25.5075 6.66564 23.6659 6.1618C24.0846 3.91587 25.3214 3.2092 26.0997 2.98871C26.9156 2.75766 27.388 1.9144 27.1549 1.10536C26.9218 0.296524 26.0716 -0.172284 25.2556 0.0590733C23.4455 0.571857 22.0628 1.80857 21.257 3.63535C20.8861 4.47618 20.6813 5.33854 20.5707 6.10228C18.638 6.55088 17.0469 7.88722 16.2604 9.65317C16.0023 9.63001 15.743 9.61783 15.4832 9.61783C11.0472 9.61783 7.38554 12.9689 6.93774 17.2522C5.21027 17.6662 3.63695 18.5774 2.41074 19.8922C0.856156 21.5592 0 23.7284 0 26.0003C0 29.6154 2.16041 32.7391 5.26804 34.1701L8.29864 46.8775C9.01796 49.8936 11.7033 52 14.8287 52H29.1711C32.2966 52 34.9818 49.8936 35.7012 46.8775L38.7319 34.1701C41.8396 32.739 44 29.6154 44 26.0003ZM22 8.98429C23.7642 8.98429 25.1995 10.4076 25.1995 12.1569C25.1995 13.9062 23.7641 15.3294 22 15.3294C20.2358 15.3294 18.8005 13.9062 18.8005 12.1569C18.8005 10.4076 20.2359 8.98429 22 8.98429ZM8.62137 34.9912L11.2889 46.1763C11.6788 47.8112 13.1346 48.9532 14.8288 48.9531H14.9391L11.5324 34.669C10.7456 34.8864 9.92235 35.0026 9.0788 35.0026C8.92547 35.0026 8.77296 34.9987 8.62137 34.9912ZM23.523 48.9531V34.8492C25.3777 34.5046 27.0838 33.5916 28.3932 32.2511C28.775 32.642 29.1908 32.9962 29.6341 33.3111L25.9036 48.9531H23.523ZM18.0965 48.9532H20.4503V34.8932C18.5566 34.6009 16.8217 33.7277 15.472 32.3948C15.1281 32.7343 14.7583 33.0422 14.3682 33.3202L18.0965 48.9532ZM32.7111 46.1763C32.3212 47.8113 30.8654 48.9532 29.1712 48.9532H29.0609L32.4686 34.6646C33.2579 34.8858 34.0822 35.0027 34.9212 35.0027C35.0746 35.0027 35.2271 34.9988 35.3787 34.9913L32.7111 46.1763ZM29.7223 28.9804C30.7953 30.8157 32.7873 31.9557 34.9213 31.9557C38.2331 31.9557 40.9273 29.2842 40.9272 26.0001C40.9272 23.041 38.7011 20.5055 35.7491 20.1026C34.9514 19.9937 34.3738 19.2925 34.4255 18.4956C34.4346 18.3548 34.4389 18.2409 34.4389 18.1369C34.4389 15.1194 31.9632 12.6646 28.9201 12.6646C28.6939 12.6646 28.4691 12.6785 28.2464 12.7055C27.9651 15.8787 25.2719 18.3762 22 18.3762C18.7169 18.3762 16.0167 15.8615 15.7511 12.673C15.6618 12.6687 15.5725 12.6646 15.4831 12.6646C12.44 12.6646 9.96435 15.1194 9.96435 18.1369C9.96435 18.2334 9.96783 18.3393 9.975 18.461C10.0235 19.286 9.39989 19.9988 8.56944 20.0678C7.07529 20.192 5.6892 20.8641 4.66671 21.9607C3.63879 23.0628 3.0727 24.4975 3.0727 26.0001C3.0727 29.284 5.76704 31.9556 9.0788 31.9556C10.0535 31.9556 10.9894 31.726 11.8228 31.3017C11.8721 31.2721 11.9231 31.2447 11.9762 31.2205C12.8561 30.7399 13.6137 30.0381 14.1704 29.1577C14.4514 28.7134 14.943 28.4436 15.472 28.4436C16.0009 28.4436 16.4925 28.7134 16.7735 29.1577C17.8815 30.9098 19.7849 31.9557 21.865 31.9557C23.999 31.9557 25.991 30.8156 27.064 28.9804C27.3388 28.5103 27.8452 28.2209 28.3932 28.2209C28.9411 28.2209 29.4475 28.5103 29.7223 28.9804Z" fill="#EDA42D"/>
</svg>

<svg width="44" height="52" fill="none" xmlns="http://www.w3.org/2000/svg"><path fill-rule="evenodd" clip-rule="evenodd" d="M44 26c0-4.025-2.725-7.53-6.523-8.637-.397-4.336-4.083-7.745-8.557-7.745-.39 0-.777.027-1.16.08a6.283 6.283 0 00-4.094-3.536c.419-2.246 1.655-2.953 2.434-3.173a1.522 1.522 0 001.055-1.884 1.538 1.538 0 00-1.9-1.046c-1.81.513-3.192 1.75-3.998 3.576a9.524 9.524 0 00-.686 2.467 6.283 6.283 0 00-4.31 3.551 8.696 8.696 0 00-.778-.035c-4.436 0-8.097 3.35-8.545 7.634a9.075 9.075 0 00-4.527 2.64A8.93 8.93 0 000 26c0 3.615 2.16 6.74 5.268 8.17l3.03 12.707c.72 3.017 3.405 5.123 6.53 5.123h14.343c3.126 0 5.81-2.106 6.53-5.123l3.03-12.707C41.84 32.74 44 29.615 44 26zM22 8.984c1.764 0 3.2 1.424 3.2 3.173 0 1.75-1.436 3.172-3.2 3.172-1.764 0-3.2-1.423-3.2-3.172 0-1.75 1.436-3.173 3.2-3.173zM8.621 34.991l2.668 11.185a3.618 3.618 0 003.54 2.777h.11L11.532 34.67a9.204 9.204 0 01-2.91.322zm14.902 13.962V34.85a9.158 9.158 0 004.87-2.598c.382.391.798.745 1.241 1.06l-3.73 15.642h-2.381zm-5.427 0h2.354v-14.06a9.029 9.029 0 01-4.978-2.498c-.344.34-.714.647-1.104.925l3.728 15.633zm14.615-2.777a3.618 3.618 0 01-3.54 2.777h-.11l3.408-14.288a9.086 9.086 0 002.91.326L32.71 46.176zM29.722 28.98a6.04 6.04 0 005.2 2.976c3.311 0 6.005-2.672 6.005-5.956 0-2.959-2.226-5.494-5.178-5.897a1.527 1.527 0 01-1.324-1.607c.01-.141.014-.255.014-.36 0-3.017-2.476-5.471-5.519-5.471-.226 0-.45.014-.674.04-.28 3.174-2.974 5.671-6.246 5.671-3.283 0-5.983-2.515-6.249-5.703a5.573 5.573 0 00-.268-.008c-3.043 0-5.519 2.454-5.519 5.472 0 .096.004.202.011.324a1.528 1.528 0 01-1.406 1.607 6.006 6.006 0 00-3.902 1.893A5.905 5.905 0 003.073 26c0 3.283 2.694 5.955 6.006 5.955.974 0 1.91-.23 2.744-.654.05-.03.1-.057.153-.081a5.993 5.993 0 002.194-2.063 1.54 1.54 0 011.302-.714c.529 0 1.02.27 1.301.714a5.99 5.99 0 005.092 2.798 6.04 6.04 0 005.199-2.976c.275-.47.781-.76 1.33-.76.547 0 1.054.29 1.328.76z" fill="#EDA42D"/></svg>
